images/leaves2.svg

<svg width="371" height="371" viewBox="0 0 371 371" fill="none" xmlns="http://www.w3.org/2000/svg">
<path fill-rule="evenodd" clip-rule="evenodd" d="M287.612 129.497C275.133 125.523 262.123 124.589 249.191 123.194C253.312 122.285 257.773 121.07 261.97 120.603C265.832 120.18 268.13 121.771 271.765 123.037C278.252 125.302 285.5 128.054 291.14 130.685C289.971 130.27 288.794 129.874 287.612 129.497ZM269.839 134.462C256.148 131.904 242.132 131.348 228.46 128.674C231.85 127.637 233.771 126.732 237.373 127.076C242.728 127.584 248.147 128.681 253.379 129.846C260.973 131.537 268.635 133.361 276.033 135.76C273.978 135.283 271.913 134.85 269.839 134.462ZM270.498 137.134C269.561 137.513 266.277 136.229 265.216 136C266.238 136.195 269.899 137.376 270.498 137.134ZM243.239 136.853C232.525 136.182 221.683 135.846 210.951 135.902C212.878 135.182 214.718 134.279 216.595 133.438C221.728 131.137 222.62 131.503 227.744 133.015C234.353 134.967 241.124 136.078 247.9 137.208C246.348 137.064 244.794 136.946 243.238 136.854L243.239 136.853ZM230.736 143.031C215.946 144.152 201.357 145.945 186.593 147.598C189.745 146.325 192.775 144.705 195.787 143.14C200.435 140.728 204.003 141.068 209.185 141.066C214.688 141.062 220.093 141.709 225.564 142.331C226.914 142.486 232.2 142.919 230.736 143.031ZM207.948 131.793C215.844 124.125 224.903 116.98 234.184 111.007C240.074 107.216 246.48 102.935 253.402 106.222C241.954 106.698 226.998 117.081 220.222 125.98C219.897 126.401 219.4 126.692 219.061 127.107C217.789 128.651 219.174 128.819 218.309 129.769C218.208 129.881 213.583 131.769 214.197 131.517C211.059 132.811 207.848 133.897 204.706 135.174C205.769 134.029 206.848 132.901 207.949 131.792L207.948 131.793ZM251.996 113.421C244.224 119.921 235.792 123.381 226.43 126.642C234.98 121.144 243.552 116.647 252.949 112.709C252.631 112.946 252.313 113.183 251.997 113.422L251.996 113.421ZM261.668 115.651C263.288 115.132 264.011 115.266 264.371 117.19C260.185 117.031 258.197 117.605 254.241 118.565C256.646 117.423 259.128 116.449 261.668 115.651ZM266.805 116.7C266.514 116.172 266.389 115.164 266.186 114.649C269.294 114.598 271.933 115.255 274.574 116.885C273.7 116.893 267.021 117.664 266.805 116.699L266.805 116.7ZM140.774 188.851C163.495 186.045 185.286 185.312 208.105 187.536C190.914 189.043 173.65 192.498 156.733 195.852C143.151 198.545 129.378 199.999 115.757 202.433C118.281 199.806 120.641 197.023 123.212 194.434C127.678 189.939 134.369 189.652 140.774 188.851ZM218.889 195.542C222.991 195.122 227.083 194.613 231.163 194.015C235.598 193.36 242.672 190.436 247.135 191.317C222.77 198.55 196.442 201.884 171.395 205.96C160.984 207.655 150.385 210.132 140.3 213.275C125.739 217.81 109.315 217.788 95.4176 224.159C99.6677 219.704 104.323 213.334 109.165 209.711C112.684 207.077 118.521 206.858 122.708 206.305C129.602 205.396 136.529 204.689 143.44 203.945C168.6 201.234 193.719 198.174 218.889 195.542ZM91.4783 219.667C89.4341 221.917 87.4446 224.216 85.5113 226.561C89.0205 210.101 88.8629 192.743 90.8397 176.034C91.9576 166.585 93.0066 157.031 94.5099 147.646C95.8391 139.358 96.1932 128.066 100.637 120.906C103.953 123.986 106.404 127.255 105.745 131.732C104.898 137.49 102.418 143.023 101.264 148.735C99.9685 155.154 99.091 161.687 98.2898 168.185C97.0574 178.179 96.7697 188.345 97.2978 198.393C97.4405 201.217 97.622 204.04 97.8422 206.859C97.9388 208.09 98.576 210.186 98.3045 211.337C97.6412 214.165 93.6166 217.299 91.4783 219.667ZM115.981 151.136C117.929 141.887 119.116 131.141 123.167 122.471C125.416 117.653 127.579 115.938 130.938 121.142C133.336 124.856 129.569 133.008 128.382 137.676C125.015 150.921 123.237 164.511 121.009 177.979C120.427 181.508 120.255 184.998 119.879 188.531C119.566 191.46 119.647 191.286 117.96 193.491C116.875 194.916 115.164 196.126 113.856 197.376C110.427 200.653 106.95 203.887 103.557 207.202C108.72 188.73 112.041 169.882 115.981 151.136ZM370.002 193.144C366.873 188.983 362.905 185.231 358.845 182.015C353.222 177.556 346.336 174.948 340.72 170.66C335.997 167.05 332.096 162.245 327.269 158.59C319.601 152.788 311.71 147.962 302.731 144.476C314.166 148.378 325.133 153.075 334.294 161.172C335.068 161.858 341.778 170.449 343.166 169.628C344.116 169.074 340.09 162.856 339.251 161.407C333.061 150.759 320.358 143.946 310.32 137.108C298.983 129.386 286.603 125.053 273.687 120.782C285.422 121.43 295.308 124.444 305.139 131.047C309.974 134.292 314.448 138.084 319.432 141.098C323.85 143.77 328.094 146.234 331.907 149.819C336.178 153.839 339.609 158.218 342.443 163.353C343.508 165.285 348.71 176.978 348.85 169.55C348.919 165.89 344.297 160.674 342.426 158.03C339.271 153.575 335.612 149.562 331.782 145.682C325.267 139.087 319.049 132.243 311.316 127.041C306.918 124.08 302.312 121.735 297.28 120.044C293.394 118.736 289.405 117.798 285.327 117.336C281.455 116.898 281.082 116.944 278.001 114.944C275.353 113.223 273.093 111.382 270.13 110.155C267.111 108.903 264.541 108.724 262.295 107.016C259.645 104.997 258.617 102.629 255.198 101.365C252.054 100.201 248.837 100.458 245.557 100.72C234.71 101.584 223.697 104.334 214.722 110.75C206.791 116.422 201.399 125.473 197.565 134.297C195.448 139.167 196.885 138.984 191.2 141.783C185.223 144.727 179.281 147.619 173.466 150.903C183.053 138.986 191.388 125.792 201.899 114.624C207.52 108.658 213.032 102.596 218.651 96.6339C220.31 94.8771 233.412 82.2225 226.053 82.6714C224.351 82.7742 221.792 85.0486 220.228 85.7953C217.107 87.2933 214.008 88.6207 211.123 90.5784C206.122 93.9719 202.04 98.194 197.951 102.585C187.358 113.96 177.81 126.126 172.922 141.061C171.764 144.595 171.341 148.579 169.527 151.822C168.25 154.11 166.75 154.9 164.156 156.59C159.707 159.483 155.383 162.458 151.17 165.693C161.943 149.738 168.892 131.883 177.38 114.704C188.297 92.6155 193.293 67.8262 202.476 45.0042C204.257 40.5776 206.427 35.7066 209.416 31.9388C210.325 30.7929 213.198 29.0751 213.449 27.6304C214.112 23.8189 211.53 24.8422 209.635 25.9383C204.99 28.6234 200.48 34.6798 197.306 38.7623C192.686 44.7002 188.008 51.1417 184.006 57.5394C170.221 79.5744 161.081 104.58 153.49 129.329C149.918 140.963 146.234 152.789 144.476 164.854C143.629 170.679 144.592 170.835 139.725 174.822C134.642 178.988 129.784 183.408 124.741 187.615C129.337 178.178 132.076 166.475 135.392 156.463C138.865 145.975 142.814 135.645 146.343 125.173C152.083 108.132 156.378 90.6844 160.511 73.2006C162.706 63.9048 164.763 54.6018 166.644 45.2404C169.062 33.2106 171.521 19.3199 176.913 8.223C177.717 6.5726 180.985 -1.09567 176.257 1.54549C174.091 2.75292 171.524 10.6547 170.418 12.7851C164.154 24.8843 158.877 37.1693 154.163 49.9456C145.806 72.5999 139.941 95.8151 133.32 118.981C130.01 114.462 123.137 109.487 117.198 111.41C111.864 113.139 109.24 120.732 107.562 125.489C107.375 122.198 103.338 116.06 100.191 115.85C98.4022 115.73 95.32 117.424 93.8243 118.132C90.1265 119.88 85.9264 122.092 83.6202 125.533C78.8938 132.591 79.7904 143.67 78.9506 151.839C76.4498 176.202 76.8979 199.727 79.652 223.991C80.2812 229.543 81.0417 232.119 77.8828 236.495C74.2747 241.495 70.7962 246.411 67.2436 251.105C68.3851 248.931 67.3535 242.286 67.3403 239.968C67.3037 233.758 67.3673 227.601 67.6896 221.396C68.3511 208.616 67.6653 195.408 67.0214 182.62C65.6957 156.272 65.8163 130.26 66.7046 103.919C66.8906 98.3681 66.7657 92.8517 66.7317 87.304C66.7174 85.0136 67.4753 79.4028 63.8374 80.7442C62.781 81.1332 62.0037 85.2298 61.6969 86.2688C58.8631 95.8461 57.9735 106.207 56.6756 116.043C55.4964 124.989 54.419 133.95 53.6716 142.94C52.2356 160.211 52.7098 176.982 52.7973 194.282C52.8707 208.532 54.4158 224.026 57.0501 237.173C58.2855 243.339 60.4326 250.001 61.0581 256.215C61.4375 259.957 59.2476 261.344 56.7329 264.742C54.1882 268.178 51.6747 271.641 49.2461 275.16C49.4802 269.768 47.9433 264.193 47.5826 258.797C47.2804 254.289 46.9939 249.804 46.588 245.301C46.2653 241.755 45.9612 238.205 45.647 234.656C44.0276 216.387 42.446 198.159 39.4568 180.058C34.8614 152.262 29.8487 123.696 30.0345 95.4189C30.0714 90.0221 30.2457 84.6291 30.3082 79.231C30.3541 75.1624 29.9801 71.126 29.9563 67.0631C29.9438 64.9911 30.888 60.9843 30.1969 58.9196C28.1974 52.9456 26.4652 59.621 26.4096 62.3644C26.3814 63.8099 26.2948 65.2512 26.2727 66.6961C26.1391 75.7752 25.3575 84.7299 24.9092 93.7987C24.2661 106.875 24.8406 119.886 25.2749 132.956C25.7492 147.193 25.3928 161.528 26.9232 175.712C28.8971 193.996 32.8499 212.173 35.3308 230.409C36.4103 238.35 37.9161 246.204 38.7332 254.182C39.4951 261.638 42.1415 268.968 43.7535 275.857L43.7445 275.329C44.3691 278.257 45.3494 279.72 44.4596 282.407C43.8323 284.294 42.1114 286.278 41.0807 288.012C38.8825 291.7 36.7725 295.431 34.662 299.169C36.5325 289.681 33.9971 277.71 31.9899 268.39C29.7714 258.078 27.0678 247.515 23.9029 237.458C21.4418 229.638 19.4052 221.95 18.6619 213.809C17.6717 202.967 14.7232 192.54 13.1379 181.798C11.6423 171.657 9.12342 161.615 6.97677 151.576C6.49318 149.316 4.33476 138.505 0.823187 143.382C-0.0426187 144.585 1.01859 147.78 1.15462 149.024C1.48882 152.104 1.69707 155.135 1.83529 158.226C2.73142 177.858 6.84257 197.786 10.065 217.128C12.1241 229.486 14.3046 241.889 17.3138 254.052C19.6573 263.522 20.9229 273.361 23.5223 282.698C24.7691 287.177 26.0354 291.755 28.0279 295.96C29.7612 299.62 31.5086 300.642 30.8971 304.586C30.0216 310.224 25.2213 316.077 23.0551 321.536C21.2834 325.999 19.4768 330.469 17.7887 334.964C15.4306 341.26 13.2207 347.666 11.1518 354.061C9.95099 357.765 7.62174 362.546 7.40364 366.313C7.07133 372.035 10.3101 370.398 12.0109 366.571C13.155 363.995 14.0684 361.224 15.1445 358.605C23.0404 339.414 30.27 318.838 42.0597 301.619C46.9775 294.428 60.5719 292.695 68.5481 290.188C87.7359 284.149 108.493 283.353 128.402 281.146C144.455 279.369 160.249 277.736 175.965 273.788C178.261 273.213 220.154 260.879 219.103 258.728C219.69 259.935 173.271 270.265 169.554 270.57C157.896 271.52 146.276 271.775 134.593 272.269C105.371 273.506 76.628 274.208 50.0754 288.015C53.4261 282.745 57.4342 272.796 63.3158 270.756C74.6515 266.818 86.5985 264.275 98.0188 260.435C109.891 256.449 122.082 253.778 134.024 250.085C145.952 246.395 157.854 242.572 169.963 239.469C182.135 236.35 194.709 233.099 207.357 233.501C212.225 233.656 217.107 234.087 221.954 234.545C223.785 234.718 238.356 237.412 230.477 234.066C225.375 231.896 218.695 231.73 213.229 230.934C206.961 230.024 200.953 229.216 194.618 229.266C180.825 229.372 166.968 232.606 153.635 235.807C137.677 239.633 121.066 243.432 105.833 249.591C91.8727 255.236 77.8407 260.656 63.8796 266.231C66.4184 262.345 69.1184 258.576 71.7598 254.759C73.0425 252.902 74.396 249.889 76.2174 248.621C78.9972 246.684 84.8463 246.181 88.0749 245.106C101.065 240.787 114.115 235.714 127.426 232.501C148.829 227.333 170.74 224.128 192.276 219.529C204.845 216.848 218.154 214.482 231.005 214.71C235.839 214.798 240.679 214.622 245.426 215.643C247.105 216.003 249.219 216.933 250.948 217.129C256.123 217.709 252.284 215.22 249.145 214.132C224.266 205.519 196.843 212.405 171.765 215.91C155.179 218.225 138.806 220.587 122.97 226.292C108.379 231.547 94.4296 238.556 79.5961 243.171C83.4839 237.646 86.95 231.925 93.1617 228.885C100.036 225.524 107.281 224.062 114.783 222.788C130.38 220.13 145.873 216.728 161.52 214.413C175.895 212.29 190.243 210.406 204.492 207.507C218.365 204.681 232.157 203.031 245.399 197.691C249.591 196 254.674 193.069 259.15 192.813C264.952 192.482 271.977 194.22 277.666 195.082C291.522 197.177 305.905 199.337 318.714 205.202C331.282 210.958 339.816 220.004 349.437 229.461C352.468 232.445 355.45 235.479 358.473 238.471C359.146 239.138 363.163 244.146 363.991 244.21C369.115 244.594 359.449 234.438 357.781 232.357C346.254 217.976 333.78 205.982 316.822 198.147C302.37 191.469 287.261 187.125 271.501 184.902C271.541 182.053 283.152 181.911 283.47 178.96C283.892 175.025 275.767 178.963 274.157 179.447C271.099 180.365 268.125 181.513 265.052 182.382C257.996 184.376 250.19 181.92 243.023 181C234.381 179.896 225.625 179.172 216.934 178.649C188.164 176.913 160.56 177.868 132.616 185.577C137.63 181.185 142.861 177.011 148.161 172.969C150.225 171.396 151.798 169.955 154.136 169.217C158.084 167.969 162.772 168.527 166.888 168.124C183.16 166.537 199.358 164.753 215.72 164.251C242.646 163.424 270.721 168.258 296.256 176.818C308.714 180.996 320.936 185.058 331.753 192.749C334.258 194.527 336.485 196.568 338.761 198.623C339.702 199.472 345.446 205.649 345.738 205.616C348.23 205.35 336.676 192.565 334.997 190.932C312.436 169.003 283.161 164.017 253.268 159.615C222.008 155.009 190.631 157.455 159.835 164.404C165.985 160.567 172.029 153.991 178.932 151.76C184.176 150.064 190.832 150.386 196.139 149.842C211.526 148.26 227.655 150.947 243.077 152.039C260.498 153.271 277.421 155.506 294.264 160.146C302.882 162.521 311.274 165.035 319.683 168.119C326.347 170.563 331.784 172.068 337.175 176.534C339.35 178.352 345.821 183.18 349.322 186.462C350.75 187.803 352.229 190.635 353.843 191.309C359.855 193.817 351.876 184.021 350.566 182.321C355.345 185.176 359.806 188.482 364.049 192.001C364.888 192.7 365.691 193.233 366.541 193.87C367.538 194.621 368.061 196.812 369.769 196.082C371.16 195.484 370.666 194.051 370.002 193.144Z" fill="#012A32"/>
</svg>

<svg width="371" height="371" fill="none" xmlns="http://www.w3.org/2000/svg"><path fill-rule="evenodd" clip-rule="evenodd" d="M287.612 129.497c-12.479-3.974-25.489-4.908-38.421-6.303 4.121-.909 8.582-2.124 12.779-2.591 3.862-.423 6.16 1.168 9.795 2.434 6.487 2.265 13.735 5.017 19.375 7.648a115.027 115.027 0 0 0-3.528-1.188Zm-17.773 4.965c-13.691-2.558-27.707-3.114-41.379-5.788 3.39-1.037 5.311-1.942 8.913-1.598 5.355.508 10.774 1.605 16.006 2.77 7.594 1.691 15.256 3.515 22.654 5.914-2.055-.477-4.12-.91-6.194-1.298Zm.659 2.672c-.937.379-4.221-.905-5.282-1.134 1.022.195 4.683 1.376 5.282 1.134Zm-27.259-.281c-10.714-.671-21.556-1.007-32.288-.951 1.927-.72 3.767-1.623 5.644-2.464 5.133-2.301 6.025-1.935 11.149-.423 6.609 1.952 13.38 3.063 20.156 4.193a139.722 139.722 0 0 0-4.662-.354l.001-.001Zm-12.503 6.178c-14.79 1.121-29.379 2.914-44.143 4.567 3.152-1.273 6.182-2.893 9.194-4.458 4.648-2.412 8.216-2.072 13.398-2.074 5.503-.004 10.908.643 16.379 1.265 1.35.155 6.636.588 5.172.7Zm-22.788-11.238c7.896-7.668 16.955-14.813 26.236-20.786 5.89-3.791 12.296-8.072 19.218-4.785-11.448.476-26.404 10.859-33.18 19.758-.325.421-.822.712-1.161 1.127-1.272 1.544.113 1.712-.752 2.662-.101.112-4.726 2-4.112 1.748-3.138 1.294-6.349 2.38-9.491 3.657a139.822 139.822 0 0 1 3.243-3.382l-.001.001Zm44.048-18.372c-7.772 6.5-16.204 9.96-25.566 13.221 8.55-5.498 17.122-9.995 26.519-13.933-.318.237-.636.474-.952.713l-.001-.001Zm9.672 2.23c1.62-.519 2.343-.385 2.703 1.539-4.186-.159-6.174.415-10.13 1.375a57.484 57.484 0 0 1 7.427-2.914Zm5.137 1.049c-.291-.528-.416-1.536-.619-2.051 3.108-.051 5.747.606 8.388 2.236-.874.008-7.553.779-7.769-.186v.001Zm-126.031 72.151c22.721-2.806 44.512-3.539 67.331-1.315-17.191 1.507-34.455 4.962-51.372 8.316-13.582 2.693-27.355 4.147-40.976 6.581 2.524-2.627 4.884-5.41 7.455-7.999 4.466-4.495 11.157-4.782 17.562-5.583Zm78.115 6.691c4.102-.42 8.194-.929 12.274-1.527 4.435-.655 11.509-3.579 15.972-2.698-24.365 7.233-50.693 10.567-75.74 14.643-10.411 1.695-21.01 4.172-31.095 7.315-14.561 4.535-30.985 4.513-44.882 10.884 4.25-4.455 8.905-10.825 13.747-14.448 3.519-2.634 9.356-2.853 13.543-3.406 6.894-.909 13.821-1.616 20.732-2.36 25.16-2.711 50.279-5.771 75.449-8.403Zm-127.41 24.125a189.795 189.795 0 0 0-5.968 6.894c3.51-16.46 3.352-33.818 5.329-50.527 1.118-9.449 2.167-19.003 3.67-28.388 1.33-8.288 1.683-19.58 6.127-26.74 3.316 3.08 5.767 6.349 5.108 10.826-.847 5.758-3.327 11.291-4.481 17.003-1.295 6.419-2.173 12.952-2.974 19.45-1.233 9.994-1.52 20.16-.992 30.208.142 2.824.324 5.647.544 8.466.097 1.231.734 3.327.463 4.478-.664 2.828-4.688 5.962-6.827 8.33Zm24.502-68.531c1.948-9.249 3.135-19.995 7.186-28.665 2.249-4.818 4.412-6.533 7.771-1.329 2.398 3.714-1.369 11.866-2.556 16.534-3.367 13.245-5.145 26.835-7.373 40.303-.582 3.529-.754 7.019-1.13 10.552-.313 2.929-.232 2.755-1.919 4.96-1.085 1.425-2.796 2.635-4.104 3.885-3.429 3.277-6.906 6.511-10.299 9.826 5.163-18.472 8.484-37.32 12.424-56.066Zm254.021 42.008c-3.129-4.161-7.097-7.913-11.157-11.129-5.623-4.459-12.509-7.067-18.125-11.355-4.723-3.61-8.624-8.415-13.451-12.07-7.668-5.802-15.559-10.628-24.538-14.114 11.435 3.902 22.402 8.599 31.563 16.696.774.686 7.484 9.277 8.872 8.456.95-.554-3.076-6.772-3.915-8.221-6.19-10.648-18.893-17.461-28.931-24.299-11.337-7.722-23.717-12.055-36.633-16.326 11.735.648 21.621 3.662 31.452 10.265 4.835 3.245 9.309 7.037 14.293 10.051 4.418 2.672 8.662 5.136 12.475 8.721 4.271 4.02 7.702 8.399 10.536 13.534 1.065 1.932 6.267 13.625 6.407 6.197.069-3.66-4.553-8.876-6.424-11.52-3.155-4.455-6.814-8.468-10.644-12.348-6.515-6.595-12.733-13.439-20.466-18.641-4.398-2.961-9.004-5.306-14.036-6.997-3.886-1.308-7.875-2.246-11.953-2.708-3.872-.438-4.245-.392-7.326-2.392-2.648-1.721-4.908-3.562-7.871-4.789-3.019-1.252-5.589-1.431-7.835-3.139-2.65-2.019-3.678-4.387-7.097-5.651-3.144-1.164-6.361-.907-9.641-.645-10.847.864-21.86 3.614-30.835 10.03-7.931 5.672-13.323 14.723-17.157 23.547-2.117 4.87-.68 4.687-6.365 7.486-5.977 2.944-11.919 5.836-17.734 9.12 9.587-11.917 17.922-25.111 28.433-36.279 5.621-5.966 11.133-12.028 16.752-17.99 1.659-1.757 14.761-14.412 7.402-13.963-1.702.103-4.261 2.378-5.825 3.124-3.121 1.498-6.22 2.826-9.105 4.783-5.001 3.394-9.083 7.616-13.172 12.007-10.593 11.375-20.141 23.541-25.029 38.476-1.158 3.534-1.581 7.518-3.395 10.761-1.277 2.288-2.777 3.078-5.371 4.768-4.449 2.893-8.773 5.868-12.986 9.103 10.773-15.955 17.722-33.81 26.21-50.989 10.917-22.088 15.913-46.878 25.096-69.7 1.781-4.426 3.951-9.297 6.94-13.065.909-1.146 3.782-2.864 4.033-4.309.663-3.811-1.919-2.788-3.814-1.692-4.645 2.685-9.155 8.742-12.329 12.824-4.62 5.938-9.298 12.38-13.3 18.777-13.785 22.035-22.925 47.041-30.516 71.79-3.572 11.634-7.256 23.46-9.014 35.525-.847 5.825.116 5.981-4.751 9.968-5.083 4.166-9.941 8.586-14.984 12.793 4.596-9.437 7.335-21.14 10.651-31.152 3.473-10.488 7.422-20.818 10.951-31.29 5.74-17.041 10.035-34.489 14.168-51.972a851.556 851.556 0 0 0 6.133-27.96c2.418-12.03 4.877-25.921 10.269-37.018.804-1.65 4.072-9.319-.656-6.678-2.166 1.208-4.733 9.11-5.839 11.24-6.264 12.1-11.541 24.384-16.255 37.16-8.357 22.655-14.222 45.87-20.843 69.036-3.31-4.519-10.183-9.494-16.122-7.571-5.334 1.729-7.958 9.322-9.636 14.079-.187-3.291-4.224-9.429-7.371-9.639-1.789-.12-4.871 1.574-6.367 2.282-3.698 1.748-7.898 3.96-10.204 7.401-4.726 7.058-3.83 18.137-4.67 26.306-2.5 24.363-2.052 47.888.702 72.152.63 5.552 1.39 8.128-1.77 12.504-3.607 5-7.086 9.916-10.638 14.61 1.141-2.174.11-8.819.096-11.137-.036-6.21.027-12.367.35-18.572.661-12.78-.025-25.988-.669-38.776-1.325-26.348-1.205-52.36-.316-78.701.186-5.55.06-11.067.027-16.615-.015-2.29.743-7.901-2.895-6.56-1.056.39-1.833 4.486-2.14 5.525-2.834 9.577-3.724 19.938-5.021 29.774-1.18 8.946-2.257 17.907-3.004 26.897-1.436 17.271-.962 34.042-.875 51.342.074 14.25 1.619 29.744 4.253 42.891 1.236 6.166 3.383 12.828 4.008 19.042.38 3.742-1.81 5.129-4.325 8.527-2.545 3.436-5.058 6.899-7.487 10.418.234-5.392-1.303-10.967-1.663-16.363-.303-4.508-.59-8.993-.995-13.496-.323-3.546-.627-7.096-.941-10.645-1.62-18.269-3.201-36.497-6.19-54.598-4.596-27.796-9.608-56.362-9.422-84.64.036-5.396.21-10.789.273-16.187.046-4.069-.328-8.105-.352-12.168-.012-2.072.932-6.079.24-8.143-1.999-5.974-3.73.701-3.786 3.444-.029 1.446-.115 2.887-.137 4.332-.134 9.08-.915 18.034-1.364 27.103-.643 13.076-.068 26.087.366 39.157.474 14.237.118 28.572 1.648 42.756 1.974 18.284 5.927 36.461 8.408 54.697 1.08 7.941 2.585 15.795 3.402 23.773.762 7.456 3.409 14.786 5.02 21.675l-.008-.528c.624 2.928 1.604 4.391.715 7.078-.628 1.887-2.349 3.871-3.38 5.605-2.197 3.688-4.307 7.419-6.418 11.157 1.87-9.488-.665-21.459-2.672-30.779-2.219-10.312-4.922-20.875-8.087-30.932-2.461-7.82-4.498-15.508-5.241-23.649-.99-10.842-3.939-21.269-5.524-32.011-1.496-10.141-4.015-20.183-6.161-30.222-.484-2.26-2.642-13.071-6.154-8.194-.866 1.203.196 4.398.332 5.642.334 3.08.542 6.111.68 9.202.896 19.632 5.008 39.56 8.23 58.902 2.06 12.358 4.24 24.761 7.249 36.924 2.343 9.47 3.609 19.309 6.208 28.646 1.247 4.479 2.513 9.057 4.506 13.262 1.733 3.66 3.48 4.682 2.87 8.626-.876 5.638-5.677 11.491-7.843 16.95-1.772 4.463-3.578 8.933-5.266 13.428a445.79 445.79 0 0 0-6.637 19.097c-1.201 3.704-3.53 8.485-3.748 12.252-.333 5.722 2.906 4.085 4.607.258 1.144-2.576 2.057-5.347 3.134-7.966 7.895-19.191 15.125-39.767 26.915-56.986 4.917-7.191 18.512-8.924 26.488-11.431 19.188-6.039 39.945-6.835 59.854-9.042 16.053-1.777 31.847-3.41 47.563-7.358 2.296-.575 44.189-12.909 43.138-15.06.587 1.207-45.832 11.537-49.549 11.842-11.658.95-23.278 1.205-34.961 1.699-29.222 1.237-57.965 1.939-84.518 15.746 3.351-5.27 7.36-15.219 13.24-17.259 11.337-3.938 23.284-6.481 34.704-10.321 11.872-3.986 24.063-6.657 36.005-10.35 11.928-3.69 23.83-7.513 35.939-10.616 12.172-3.119 24.746-6.37 37.394-5.968 4.868.155 9.75.586 14.597 1.044 1.831.173 16.402 2.867 8.523-.479-5.102-2.17-11.782-2.336-17.248-3.132-6.268-.91-12.276-1.718-18.611-1.668-13.793.106-27.65 3.34-40.983 6.541-15.958 3.826-32.569 7.625-47.802 13.784-13.96 5.645-27.992 11.065-41.953 16.64 2.538-3.886 5.238-7.655 7.88-11.472 1.282-1.857 2.636-4.87 4.457-6.138 2.78-1.937 8.63-2.44 11.858-3.515 12.99-4.319 26.04-9.392 39.351-12.605 21.403-5.168 43.314-8.373 64.85-12.972 12.569-2.681 25.878-5.047 38.729-4.819 4.834.088 9.674-.088 14.421.933 1.679.36 3.793 1.29 5.522 1.486 5.175.58 1.336-1.909-1.803-2.997-24.879-8.613-52.302-1.727-77.38 1.778-16.586 2.315-32.959 4.677-48.795 10.382-14.591 5.255-28.54 12.264-43.374 16.879 3.888-5.525 7.354-11.246 13.566-14.286 6.874-3.361 14.119-4.823 21.621-6.097 15.597-2.658 31.09-6.06 46.737-8.375 14.375-2.123 28.723-4.007 42.972-6.906 13.873-2.826 27.665-4.476 40.907-9.816 4.192-1.691 9.275-4.622 13.751-4.878 5.802-.331 12.827 1.407 18.516 2.269 13.856 2.095 28.239 4.255 41.048 10.12 12.568 5.756 21.102 14.802 30.723 24.259 3.031 2.984 6.013 6.018 9.036 9.01.673.667 4.69 5.675 5.518 5.739 5.124.384-4.542-9.772-6.21-11.853-11.527-14.381-24.001-26.375-40.959-34.21-14.452-6.678-29.561-11.022-45.321-13.245.04-2.849 11.651-2.991 11.969-5.942.422-3.935-7.703.003-9.313.487-3.058.918-6.032 2.066-9.105 2.935-7.056 1.994-14.862-.462-22.029-1.382-8.642-1.104-17.398-1.828-26.089-2.351-28.77-1.736-56.374-.781-84.318 6.928 5.014-4.392 10.245-8.566 15.545-12.608 2.064-1.573 3.637-3.014 5.975-3.752 3.948-1.248 8.636-.69 12.752-1.093 16.272-1.587 32.47-3.371 48.832-3.873 26.926-.827 55.001 4.007 80.536 12.567 12.458 4.178 24.68 8.24 35.497 15.931 2.505 1.778 4.732 3.819 7.008 5.874.941.849 6.685 7.026 6.977 6.993 2.492-.266-9.062-13.051-10.741-14.684-22.561-21.929-51.836-26.915-81.729-31.317-31.26-4.606-62.637-2.16-93.433 4.789 6.15-3.837 12.194-10.413 19.097-12.644 5.244-1.696 11.9-1.374 17.207-1.918 15.387-1.582 31.516 1.105 46.938 2.197 17.421 1.232 34.344 3.467 51.187 8.107 8.618 2.375 17.01 4.889 25.419 7.973 6.664 2.444 12.101 3.949 17.492 8.415 2.175 1.818 8.646 6.646 12.147 9.928 1.428 1.341 2.907 4.173 4.521 4.847 6.012 2.508-1.967-7.288-3.277-8.988 4.779 2.855 9.24 6.161 13.483 9.68.839.699 1.642 1.232 2.492 1.869.997.751 1.52 2.942 3.228 2.212 1.391-.598.897-2.031.233-2.938Z" fill="#012A32"/></svg>
